!!!COM: Louise Reichardt
!!!CNT: Deutsch
!!!TXO: Deutsch
!!!OTL: Aus Tiecks Genoveva
!!!LYR: Tieck
!!!OPR: 
!!!OPS: No opus information available
!!!ONM: No. 28
!!!ENC: Ben Fuhrman
!!!YOR: Louise Reichardt: Songs
!!!YOR: New York, Da Capo Press, 1981
!!!ODT: 1800 - 1826
!!NB: Only vocal melody encoded.
!!NB: First instance of melodic material only encoded.
!!created: 2/19/10 12:38PM
!!proofed and posted: 2/19/10 12:38PM
**kern	**silbe
*clef G2	*
*k[b-e-a-d-]	*
*M3/4	*
*MM[Sehr langsam]	*
{8cc	{Dicht
8cc	von
=1	=1
4.cc	Fel-
8b-	-sen
8a-	ein
8g	ge-
=2	=2
4g	-schlos-
4f	-sen
8f	wo
8a-	die
=3	=3
4.g	stil-
8g	-len
8a-	Ba2ch-
8g	-lein
=4	=4
4g}	gehn,}
4r	.
{8cc	{wo
8cc	die
=5	=5
4.cc	dunk-
8b-	-eln
8a-	Wei-
8g	-den
=6	=6
gq	spros-
4f	|
4f	-sen
8f	wu2nsch
8g	ich
=7	=7
8a-	bald
8dd-	mein
4cc	Grab
4b-	zu
=8	=8
4a-}	sehn.}
4r	.
{8a-	{Hier
8a-	im
=9	=9
8.an	stil-
16an	-len
8b-	ein-
8b-	-sam
8cc	gru2-
8cc	-nen
=10	=10
4dd-	Thal
8dd-	such
8dd-	ich
8cc	Ruh
8dd-	fu2r
=11	=11
8cc	mein-
8b-	-es
4a-	Herz-
4g	-ens
=12	=12
2f}	Quall.}
4r	.
==	==
*-	*-
